X:157 
T:Paddy Fahy's Jig
F:file ID: cre.5/157pad_f_J
B:CRE5.007 (Port PhÃÂÃÂÃÂÃÂ¡idÃÂÃÂÃÂÃÂ­ UÃÂÃÂÃÂÃÂ­ Fhathaigh, in key of C)
M:6/8
N:First part per CRE is 16 measures, no repeat. 
2nd part repeats.
Q:160
R:jig
K:D % transposed from C
dcd edc|dAF DFA|GFG EFG|ABc dfe|
"5"dcd eAc|dGE AFD|GFG EAG|FDC DFA|
"9"dcd fec|dAF DFA|~G3 EFG|ABc dfe|
"13"dcd eAc|dGE AFD|~G3 EAG|FDC DFA||
"17"dcd a^ga|fb^g afd|B2g gfg|Bdg bge|
"21"dcd a^ga|fb^g a2b|afd gec|1 dAF DAF :|\
[2 dAF D3-|D6||


%%%

